X: 6210
T: Carleton County Breakdown
R: reel
M: 4/4
K: Amajor
|:cd|eAcd eagf|egBe g2 ef|gfeg fecf|eece a2 cd|
eAcd eagf|egBe gfef|gfeg feaf|ecBc A2:|
|:ED|CEAB cABc|dAFE DFED|CEAc ecAc|dcBA B2 ED|
CDAB cABc|dAFE DFED|CEAc BEGB|AcBc A2:|

